X: 1
T: String Quartet in A Major opus 20 no 6 mvt 4
C: Franz Joseph Haydn
%%abc-version 2.0
%%abcx-abcm2ps-target-version 5.9.1 (29 Sep 2008)
%%abc-creator hum2abc beta
%%abcx-conversion-date 2021/02/14 14:38:36
%%abc-copyright Copyright (c) 1994, 2000 Center for Computer Assisted Research in the Humanities
%%abc-edited-by Frances Bennion
%%abcx-initial-encoding-date 1997/04/15
%%gracespace 0 6 6
%%humdrum-veritas 1727039765
%%humdrum-veritas-data 1941800139
%%linebreak <none>
%%barnumbers 0
L: 1/8
M: 4/4
N: Derived from op20n6-04.krn
Q: "Fuga a tre soggetti: Allegro"
%%staves [1 2 3 4]
V: 1
V: 2
V: 3 clef=alto
V: 4 clef=bass
K: A
[V:1]ze ee cB/c/ Ac [I:setbarnb2] |
[V:2]z6 A2- |
[V:3]z8 |
[V:4]z8 |
[V:1]Bb2 g/e/ aA zA |
[V:2]A2 G4 F2 |
[V:3]z8 |
[V:4]z8 |
[V:1]Gg2 e/c/ fF zF |
[V:2]F2 E4 D2- |
[V:3]z8 |
[V:4]z8 |
[V:1]Ee2 c/A/ de/f/ ed |
[V:2]D2 C2 B,A, G,2 |
[V:3]z8 |
[V:4]z8 |
[V:1]c2 ^d3/c//d// e2 z2 |
[V:2]A,A AA GF/G/ EG |
[V:3]z6 E2- |
[V:4]z8 |
[V:1]z2 >f2 ga/b/ a/b/g/a/ |
[V:2]Ff2 ^d/B/ eE zE |
[V:3]E2 ^D4 C2- |
[V:4]z8 |
[V:1]f2 z^d ef/g/ f/g/e/f/ |
[V:2]^D^d2 B/G/ cC zC |
[V:3]C2 B,4 A,2- |
[V:4]z8 |
[V:1]^d2 e4 d2 |
[V:2]B,B2 G/E/ AB/c/ BA |
[V:3]A,2 G,2 F,2 B,2 |
[V:4]z8 |
[V:1]eG/A/ BA/B/ c2 a2- |
[V:2]GE/F/ GF/G/ AB ce |
[V:3]E,E EE CB,/C/ A,C |
[V:4]z8 |
[V:1]a2 g4 f2- |
[V:2]d2 zB cd/e/ d/e/c/d/ |
[V:3]B,B2 G/E/ AA, zA, |
[V:4]z8 |
[V:1]f2 e4 d2- |
[V:2]B2 zG AB/c/ B/c/A/B/ |
[V:3]G,G2 E/C/ FF, zF, |
[V:4]z8 |
[V:1]d2 c2 B4 |
[V:2]G2 A4 G2 |
[V:3]E,E2 C/A,/ DE/F/ ED |
[V:4]z8 |
[V:1]A2 z6 |
[V:2]Ac/B/ c^d e4- |
[V:3]CE/D/ EF B,2 GB |
[V:4]zA, A,A, G,F,/G,/ E,G, |
[V:1]z8 |
[V:2]e2 ^d4 c2- |
[V:3]A2 zF GA/B/ A/B/G/A/ |
[V:4]F,F2 ^D/B,/ EE, zE, |
[V:1]z8 |
[V:2]c2 B4 A2- |
[V:3]F2 z^D EF/G/ F/G/E/F/ |
[V:4]^D,^D2 B,/G,/ CC, zC, |
[V:1]z8 |
[V:2]A2 G2 F4 |
[V:3]^D2 E4 D2 |
[V:4]B,,B,2 G,/E,/ A,B,/C/ B,A, |
[V:1]ze ee cB/c/ Ac |
[V:2]EG AB E2 z2 |
[V:3]EE, F,G, A,2 z2 |
[V:4]G,2 z4 A,2- |
[V:1]Bb2 g/e/ aA zA |
[V:2]z2 e3 f/c/ d2 |
[V:3]z2 >B,2 CD/E/ D/E/C/D/ |
[V:4]A,2 G,4 F,2- |
[V:1]Gg2 e/c/ fF zF |
[V:2]z2 c3 d/A/ B2 |
[V:3]B,2 zG, A,B,/C/ B,/C/A,/B,/ |
[V:4]F,2 E,4 D,2- |
[V:1]Ee2 c/A/ de/f/ ed |
[V:2]z2 E2 FD B,C/D/ |
[V:3]G,2 A,4 G,2 |
[V:4]D,2 C,2 B,,4 |
[V:1]ce a4 g2- |
[V:2]E2 z4 ze- |
[V:3]A,2 zA B4 |
[V:4]A,,2 zC DE/F/ E/F/D/E/ |
[V:1]ga/e/ f4 e2- |
[V:2]eC Dd2 B/G/ c2- |
[V:3]A3 B/F/ G4 |
[V:4]C2 zD B,C/D/ C/D/B,/C/ |
[V:1]ef/c/ d4 c2- |
[V:2]c^A, B,B2 G/E/ A2- |
[V:3]F3 D/F/ E4 |
[V:4]^A,2 zB, G,=A,/B,/ A,G, |
[V:1]c2 B4 AG |
[V:2]AF/D/ G3 ^E/C/ FG |
[V:3]D4 C4- |
[V:4]F,G,/A,/ G,/A,/F,/G,/ ^E,F,/G,/ F,=E, |
[V:1]F2 ^B2 c2 z2 |
[V:2]Af ff ^e^d/e/ ce |
[V:3]CA GF Gc cc |
[V:4]D,4 C,2 z2 |
[V:1]z8 |
[V:2]f2 >e2 ^dc/d/ Bd |
[V:3]^AG/A/ FA2 <B2 =A |
[V:4]z8 |
[V:1]z8 |
[V:2]e2 >d2 cB/c/ AB/c/ |
[V:3]GF/G/ EG A2 CD/E/ |
[V:4]z4 zA, A,A, |
[V:1]z2 >A2 =G=g2 e/c/ |
[V:2]d2 z2 >B2 ce |
[V:3]FA d4 c2- |
[V:4]F,E,/F,/ D,F, E,E2 C/A,/ |
[V:1]fF zF Ee2 c/A/ |
[V:2]zA Bd zG Ac |
[V:3]c2 B4 A2- |
[V:4]D,D zD, C,C2 A,/F,/ |
[V:1]dD zB Aa aa |
[V:2]zd dd cB/c/ Ac |
[V:3]A2 G2 A2 z2 |
[V:4]B,B,, zE,, A,,2 z2 |
[V:1]fe/f/ df ee'2 c'/a/ |
[V:2]d2 d4 c2- |
[V:3]z2 >F2 =G=G, A,A |
[V:4]z8 |
[V:1]d'd zd cc'2 a/f/ |
[V:2]c2 B4 A2- |
[V:3]F=G/A/ G/A/F/G/ EE, F,F |
[V:4]z8 |
[V:1]bB zB Aa2 f/d/ |
[V:2]A2 =G4 F2 |
[V:3]DE/F/ E/F/D/E/ CC, D,D |
[V:4]z8 |
[V:1]=ga/b/ a/b/g/a/ fg/a/ g/a/f/g/ |
[V:2]E4 D4 |
[V:3]D2 C4 B,2- |
[V:4]z8 |
[V:1]ef/=g/ f/g/e/f/ d2 z2 |
[V:2]C4 Dd dd |
[V:3]B,2 ^A,2 B,B,/C/ D/C/D/E/ |
[V:4]z4 zB, B,B, |
[V:1]zf fe dc/d/ B^d |
[V:2]cB/c/ ^Ac2 <F2 B |
[V:3]Fc2 ^A/F/ B2 zF |
[V:4]^A,G,/A,/ F,A,2 <B,2 =A, |
[V:1]e2 >d2 cB/c/ Ac |
[V:2]B^A/B/ GB2 <E2 A |
[V:3]EB2 G/E/ A2 z2 |
[V:4]G,F,/G,/ E,G, A,2 z2 |
[V:1]B2 e2 dc/d/ Bd |
[V:2]GF/G/ EG F2 B2 |
[V:3]z3 E,/G,/ B,2 z2 |
[V:4]z8 |
[V:1]c2 f2 e^d/e/ ce |
[V:2]AG/A/ FA G2 c2 |
[V:3]z3 F,/A,/ C2 z2 |
[V:4]z8 |
[V:1]^d2 >d2 ef gc |
[V:2]^B^A/B/ GB c^d eg |
[V:3]zG GG E^D/E/ CE |
[V:4]z8 |
[V:1]a/b/c'/b/ a/b/g/a/ f2 zf |
[V:2]c2 zc ^d/e/f/e/ d/e/c/d/ |
[V:3]F/G/A/G/ F/G/E/F/ ^D3 D |
[V:4]z8 |
[V:1]g/a/b/a/ g/a/f/g/ e2 ze |
[V:2]B2 zB c/^d/e/d/ c/d/B/c/ |
[V:3]E/F/G/F/ E/F/^D/E/ C2 zC |
[V:4]z8 |
[V:1]f/g/a/g/ f/g/e/f/ ^d2 zd |
[V:2]A2 zA G/^B/^d/c/ B/G/^A/B/ |
[V:3]^D/E/F/E/ D/E/C/D/ ^B,2 zD |
[V:4]z4 zG, G,G, |
[V:1]G2 z2 >g2 gg |
[V:2]c^d e2 d4 |
[V:3]EF G4 G2- |
[V:4]E,^D,/E,/ C,C C2 ^B,2 |
[V:1]e^d/e/ ce d^d'2 b/g/ |
[V:2]e2 z6 |
[V:3]G2 A4 G2- |
[V:4]C4 B,4 |
[V:1]c'c zc Bb2 g/^e/ |
[V:2]z4 zc cc |
[V:3]G2 F4 ^EB, |
[V:4]A,4 G,4 |
[V:1]f2 z6 |
[V:2]AG/A/ FA G4 |
[V:3]A,F FF ^E^D/E/ CE |
[V:4]F,2 z2 >C2 CC |
[V:1]z2 >f2 f2 e2- |
[V:2]AB cc2 <B2 G |
[V:3]FG AA, G,G2 E/C/ |
[V:4]A,G,/A,/ F,2 z4 |
[V:1]e2 d4 c2- |
[V:2]AB/c/ B/c/A/B/ G2 zE |
[V:3]FF, zF, E,E2 C/A,/ |
[V:4]z8 |
[V:1]c2 B4 ^A2 |
[V:2]FG/A/ G/A/F/G/ Ee ee |
[V:3]DD, zD, C,2 F,2 |
[V:4]z8 |
[V:1]F4- Ff ff |
[V:2]dc/d/ Bd cB/c/ ^Ac |
[V:3]zB, B,B, ^A,G,/A,/ F,A, |
[V:4]z8 |
[V:1]dc/d/ B^d e2 z2 |
[V:2]F4 BA/B/ GB |
[V:3]B,2 z2 >E2 EE |
[V:4]zB,, B,,B,, G,,F,,/G,,/ E,,G,, |
[V:1]z2 >A2 Gg2 e/c/ |
[V:2]Aa2 f/^d/ gG zG |
[V:3]E2 ^D^d2 B/G/ c2- |
[V:4]F,,F,2 ^D,/B,,/ E,E,, zE,, |
[V:1]fF zF Ee2 c/A/ |
[V:2]Ff2 ^d/B/ eE zE |
[V:3]cC B,B2 G/E/ A2- |
[V:4]^D,,^D,2 B,,/G,,/ C,C,, zC, |
[V:1]^d3 e/d/ c3 d/c/ |
[V:2]^D^d2 B/G/ cC zC |
[V:3]AB/A/ G3 A/G/ F2- |
[V:4]B,,B,2 G,/E,/ A,A,, zA,, |
[V:1]^B2 c4 B2 |
[V:2]^D2 EC G2 z2 |
[V:3]FG/F/ E/G/F/E/ ^D3 D |
[V:4]G,,4 G,,G, G,G, |
[V:1]c2 z6 |
[V:2]zg gg e^d/e/ c2 |
[V:3]EF/G/ E/F/^D/E/ C2 zG |
[V:4]E,^D,/E,/ C,2 zC CC |
[V:1]zc' c'c' ag/a/ f2 |
[V:2]z7 c |
[V:3]AB/c/ A/B/G/A/ FF FF |
[V:4]A,G,/A,/ F,2 z4 |
[V:1]zf ff ^dc/d/ B2 |
[V:2]^de/f/ d/e/c/d/ B2 zF |
[V:3]^DC/D/ B,2 zB, B,B, |
[V:4]z8 |
[V:1]zb bb gf/g/ e2 |
[V:2]GA/B/ G/A/F/G/ E2 z2 |
[V:3]G,F,/G,/ E,2 z3 B, |
[V:4]z4 zE, E,E, |
[V:1]ze ee cB/c/ Ac |
[V:2]z4 zA AA |
[V:3]CD/E/ C/D/B,/C/ A,2 z2 |
[V:4]C,B,,/C,/ A,,2 z4 |
[V:1]Bb2 g/e/ aA zA |
[V:2]GF/G/ EG Ff2 d/B/ |
[V:3]z2 e4 d2- |
[V:4]z8 |
[V:1]Gg2 e/c/ fF zF |
[V:2]eE zE Dd2 B/G/ |
[V:3]d2 c4 B2- |
[V:4]z8 |
[V:1]Ee2 c/A/ dD DC/D/ |
[V:2]cC zC B,G GG |
[V:3]B2 A2 >E2 EE |
[V:4]z8 |
[V:1]C2 z6 |
[V:2]A2 z4 e2- |
[V:3]CB,/C/ A,C B,B2 G/E/ |
[V:4]zA,, A,,A,, G,,F,,/G,,/ E,,G,, |
[V:1]z2 >F2 GA/B/ A/B/G/A/ |
[V:2]e2 d4 c2- |
[V:3]AA, zA, G,G2 E/C/ |
[V:4]F,,F,2 D,/B,,/ E,E,, zE,, |
[V:1]F2 zD EF/G/ F/G/E/F/ |
[V:2]c2 B4 A2- |
[V:3]FF, zF, E,E2 C/A,/ |
[V:4]D,,D,2 B,,/G,,/ C,C,, zC, |
[V:1]D2 zB, Ce dc |
[V:2]A2 G2 Ac BA |
[V:3]DD, zD CA, zA, |
[V:4]B,,B,2 G,/E,/ A,A,, D,^D, |
[V:1]Be ee cB/c/ Ac |
[V:2]G2 z4 zc |
[V:3]E,2- E,F,/G,/ A,B, CA |
[V:4]E,8- |
[V:1]Bb2 g/e/ aA zA |
[V:2]d2 e2 cd/e/ d/e/c/d/ |
[V:3]A2 G4 F2- |
[V:4]E,8 |
[V:1]Gg2 e/c/ fF zF |
[V:2]B2 c2 AB/c/ B/c/A/B/ |
[V:3]F2 E4 D2- |
[V:4]E,8- |
[V:1]Ee2 c/A/ Fa2 f/^d/ |
[V:2]G2 A2 ^D2 F2 |
[V:3]D2 C2 A,4 |
[V:4]E,8 |
[V:1]eE e4 d2- |
[V:2]E2 zE Ff2 d/B/ |
[V:3]G,2 G2 AA, B,B |
[V:4]E,,8- |
[V:1]d2 c4 B2- |
[V:2]eE zE Dd2 B/G/ |
[V:3]GA/B/ A/B/G/A/ FF, G,G |
[V:4]E,,8 |
[V:1]B2 A4 G2 |
[V:2]cC zC B,B2 G/E/ |
[V:3]EF/G/ F/G/E/F/ DE/F/ E2- |
[V:4]E,,4 E,,E, E,E, |
[V:1]Ae ee cB/c/ A2 |
[V:2]cd/e/ c/d/B/c/ A2 zC |
[V:3]E2 z2 >E2 EE |
[V:4]C,B,,/C,/ A,,2 zA, A,A, |
[V:1]za aa fe/f/ dc/d/ |
[V:2]D2 z2 >A2 B2 |
[V:3]F=G/A/ F/G/E/F/ D2 z2 |
[V:4]F,E,/F,/ D,2 zD B,A,/B,/ |
[V:1]BA/B/ Ge cB/c/ Af/e/ |
[V:2]BE e2 ze aA |
[V:3]z2 >E2 c2 z2 |
[V:4]G,F,/G,/ E,C A,G,/A,/ F,D/C/ |
[V:1]d/e/c/d/ B/c/A/B/ G2 z2 |
[V:2]d2 zB, G/A/F/G/ E/F/D/E/ |
[V:3]zF d2 zB, EF/G/ |
[V:4]B,/C/A,/B,/ G,/A,/F,/G,/ E,/F,/D,/E,/ C,/D,/B,,/C,/ |
[V:1]ze ee f/e/f/g/ ac' |
[V:2]C2 z6 |
[V:3]A2 zA, A,A, C/B,/C/D/ |
[V:4]A,,2 z6 |
[V:1]bB2 e/g/ Aa za |
[V:2]zb2 g/e/ aA z2 |
[V:3]EG zG FF,2 B,/D/ |
[V:4]z2 >E,2 F,F2 D/B,/ |
[V:1]gG2 c/e/ Ff zf |
[V:2]zg2 e/c/ fF z2 |
[V:3]E,E zE DD,2 G,/B,/ |
[V:4]EE, zC, D,D2 B,/G,/ |
[V:1]eE2 A/c/ Dd cA |
[V:2]zE EE F/E/F/G/ Ac |
[V:3]C,C z6 |
[V:4]CC, zA,, A,,A,, C,/B,,/C,/D,/ |
[V:1]G2 z6 |
[V:2]BB,2 E/G/ A,A zA |
[V:3]z2 e3 f/c/ d2- |
[V:4]E,G, zG, F,F,,2 B,,/D,/ |
[V:1]z8 |
[V:2]GG,2 C/E/ Ff zf |
[V:3]de/B/ c3 d/A/ B2 |
[V:4]E,,E, zE, D,D,,2 G,,/B,,/ |
[V:1]z8 |
[V:2]eE2 A/c/ dc BA |
[V:3]Bc/G/ AE GA FF |
[V:4]C,,C, zC, B,,A,, D,^D, |
[V:1]ze ee cB/c/ A/c/B/A/ |
[V:2]G2 z2 >A2 AA |
[V:3]B,G, E,F,/G,/ A,B, CD |
[V:4]E,8 |
[V:1]GA BA/B/ cd ea |
[V:2]GF/G/ EF/G/ AB ce |
[V:3]EF GE EE CB,/A,/ |
[V:4]E,,E, E,E, C,B,,/C,/ A,,C, |
[V:1]a2 g4 f2- |
[V:2]d4 cd/e/ d/e/c/d/ |
[V:3]Dd2 B/G/ cC zA |
[V:4]B,,B,2 G,/E,/ A,A,, zA,, |
[V:1]f2 e4 d2- |
[V:2]B2 zG AB/c/ B/c/A/B/ |
[V:3]Bc/d/ c/d/B/c/ A2 zF |
[V:4]G,,G,2 E,/C,/ F,F,, zF,, |
[V:1]d2 c2 B4 |
[V:2]GA/B/ A4 G2 |
[V:3]BG E2 FE/F/ ED |
[V:4]E,,F,,/G,,/ A,,B,,/C,/ D,C,/D,/ E,E,, |
[V:1]AE EE CB,/C/ A,F |
[V:2]AE EE CB,/C/ A,F |
[V:3]CE EE CB,/C/ A,F |
[V:4]A,,E, E,E, C,B,,/C,/ A,,F, |
[V:1]DC/D/ B,G A/B/c/B/ A/G/F/E/ |
[V:2]DC/D/ B,G A/B/c/B/ A/G/F/E/ |
[V:3]DC/D/ B,G A/B/c/B/ A/G/F/E/ |
[V:4]D,C,/D,/ B,,G, A,/B,/C/B,/ A,/G,/F,/E,/ |
[V:1]DB EG A,2 [g2B2] |
[V:2]DB EG A,2 [B2E2] |
[V:3]DB EG A,2 E,2 |
[V:4]D,B, E,G, A,,2 E,,2 |
[V:1][c2a2] z6 |]
[V:2][c2E2] z6 |]
[V:3]A,2 z6 |]
[V:4]A,,2 z6 |]

